X:0
T: Rheinlander efter  Elias Ambjörnsson
T:(SvL BohuslÃ¤n 95)
R:Schottis
S:Elias AmbjÃ¶rnsson
O:Ytterby, BohuslÃ¤n
B:Svenska LÃ¥tar BohuslÃ¤n
M:2/4
Q: "BPM=60"
K:G fgp=1
{/A}GFGB d2d2|{/f}edec A4|{/A}FGAB c2c2|BAGA B2G2|
{/A}GFGB d2d2|{/f}edec A3G|FGAB cedF|G2G2G4:|
|:D2G2 FEFG|A2G2 G4|FGAB cBcd|e2d2 B4|
D2G2 FEFG|A2G2 G4|FGAB cedF|A2G2G4:|
